svgs/regular/toilet-paper-xmark.svg

<svg xmlns="http://www.w3.org/2000/svg" viewBox="0 0 512 512"><!--! Font Awesome Pro 6.2.0 by @fontawesome - https://fontawesome.com License - https://fontawesome.com/license (Commercial License) Copyright 2022 Fonticons, Inc. --><path d="M235.3 132.7C241.6 138.9 241.6 149.1 235.3 155.3L198.6 192L235.3 228.7C241.6 234.9 241.6 245.1 235.3 251.3C229.1 257.6 218.9 257.6 212.7 251.3L175.1 214.6L139.3 251.3C133.1 257.6 122.9 257.6 116.7 251.3C110.4 245.1 110.4 234.9 116.7 228.7L153.4 192L116.7 155.3C110.4 149.1 110.4 138.9 116.7 132.7C122.9 126.4 133.1 126.4 139.3 132.7L175.1 169.4L212.7 132.7C218.9 126.4 229.1 126.4 235.3 132.7zM376 192C376 165.5 386.7 144 400 144C413.3 144 424 165.5 424 192C424 218.5 413.3 240 400 240C386.7 240 376 218.5 376 192zM464 456V351.1C447.4 370.4 425.9 384 400 384H112C74.3 384 45.98 355.3 28.51 321.9C10.45 287.4 0 241.5 0 192C0 142.5 10.45 96.55 28.51 62.07C45.98 28.72 74.3 0 112 0H400C437.7 0 466 28.72 483.5 62.07C501.5 96.55 512 142.5 512 192V456C512 486.9 486.9 512 456 512H216C185.1 512 160 486.9 160 456V416H208V456C208 460.4 211.6 464 216 464H456C460.4 464 464 460.4 464 456zM71.03 299.7C85.42 327.1 101.1 336 112 336H324.7C321.8 331.5 319 326.7 316.5 321.9C298.5 287.4 288 241.5 288 192C288 142.5 298.5 96.55 316.5 62.07C319 57.26 321.8 52.55 324.7 48H112C101.1 48 85.42 56.89 71.03 84.34C57.25 110.7 48 148.7 48 192C48 235.3 57.25 273.3 71.03 299.7V299.7zM336 192C336 235.3 345.2 273.3 359 299.7C373.4 327.1 389.1 336 400 336C410.9 336 426.6 327.1 440.1 299.7C454.8 273.3 464 235.3 464 192C464 148.7 454.8 110.7 440.1 84.34C426.6 56.89 410.9 48 400 48C389.1 48 373.4 56.89 359 84.34C345.2 110.7 336 148.7 336 192z"/></svg>

<svg xmlns="http://www.w3.org/2000/svg" viewBox="0 0 512 512"><!--! Font Awesome Pro 6.3.0 by @fontawesome - https://fontawesome.com License - https://fontawesome.com/license (Commercial License) Copyright 2023 Fonticons, Inc. --><path d="M48 192c0 43.3 9.2 81.3 23 107.7c14.4 27.5 30.1 36.3 41 36.3H324.7c-3-4.5-5.7-9.3-8.2-14.1C298.5 287.4 288 241.5 288 192s10.5-95.4 28.5-129.9c2.5-4.8 5.3-9.5 8.2-14.1H112c-10.9 0-26.6 8.9-41 36.3C57.2 110.7 48 148.7 48 192zM359 84.3c-13.8 26.3-23 64.3-23 107.7s9.2 81.3 23 107.7c14.4 27.5 30.1 36.3 41 36.3s26.6-8.9 41-36.3c13.8-26.3 23-64.3 23-107.7s-9.2-81.3-23-107.7C426.6 56.9 410.9 48 400 48s-26.6 8.9-41 36.3zM464 456V351.1c-16.6 19.3-38.1 32.9-64 32.9H112c-37.7 0-66-28.7-83.5-62.1C10.5 287.4 0 241.5 0 192S10.5 96.6 28.5 62.1C46 28.7 74.3 0 112 0H400c37.7 0 66 28.7 83.5 62.1C501.6 96.6 512 142.5 512 192V456c0 30.9-25.1 56-56 56H216c-30.9 0-56-25.1-56-56V416h48v40c0 4.4 3.6 8 8 8H456c4.4 0 8-3.6 8-8zM400 240c-13.3 0-24-21.5-24-48s10.7-48 24-48s24 21.5 24 48s-10.7 48-24 48zM235.3 132.7c6.2 6.2 6.2 16.4 0 22.6L198.6 192l36.7 36.7c6.2 6.2 6.2 16.4 0 22.6s-16.4 6.2-22.6 0L176 214.6l-36.7 36.7c-6.2 6.2-16.4 6.2-22.6 0s-6.2-16.4 0-22.6L153.4 192l-36.7-36.7c-6.2-6.2-6.2-16.4 0-22.6s16.4-6.2 22.6 0L176 169.4l36.7-36.7c6.2-6.2 16.4-6.2 22.6 0z"/></svg>
